DE/EBO/Lf7_50_Tafel.svg

<?xml version="1.0" encoding="UTF-8" standalone="no"?>
<svg width="218px" height="279px" viewBox="0 0 218 279" version="1.1" xmlns="http://www.w3.org/2000/svg" xmlns:xlink="http://www.w3.org/1999/xlink" xmlns:sketch="http://www.bohemiancoding.com/sketch/ns">
    <title>Slice 1</title>
    <description>Created with Sketch (http://www.bohemiancoding.com/sketch)</description>
    <defs></defs>
    <g id="Page-1" stroke="none" stroke-width="1" fill="none" fill-rule="evenodd" sketch:type="MSPage">
        <g id="Lf7_150_Tafel" sketch:type="MSLayerGroup" transform="translate(6.000000, 7.000000)">
            <g id="layer5" transform="translate(0.000000, -0.009990)" stroke="#000000" stroke-width="12" fill="#FFFFFF" sketch:type="MSShapeGroup">
                <rect id="rect4663" x="0" y="0" width="205.06096" height="265.6701"></rect>
            </g>
            <g id="layer6" transform="translate(66.500000, 41.990010)" fill="#000000" sketch:type="MSShapeGroup">
                <g id="g3908" transform="translate(0.357940, 0.168298)">
                    <g id="text4403" transform="translate(0.004495, 0.442793)">
                        <path d="M71.4874419,99.6942229 L71.4874419,146.324254 C71.6998416,165.246597 55.8487599,181.938243 35.904982,181.938243 C15.0933952,181.938243 0.262440194,165.000188 0.262440194,146.324254 L0.262440194,135.655397 L22.6074434,135.655397 L22.6074434,146.324254 C22.6074434,153.92146 28.7271843,159.610605 35.7549391,159.600024 C43.3463377,159.588594 49.1645024,153.564622 49.1645024,146.324254 L49.1645024,100.465197 C49.1645024,92.7429406 42.7414201,87.2369917 35.8586973,87.2369917 C30.4499856,87.2369917 24.6874116,90.4111032 22.6074434,96.7199904 L0.351195049,96.7199904 L0.351195049,0.463008534 L71.4874419,0.463008534 L71.4874419,22.7594857 L22.6074434,22.7594857 L22.6074434,72.9261304 C28.6740746,67.5185491 35.0590602,65.8223999 43.2702523,65.8223999 C61.9789933,65.8223999 71.4874419,82.6212689 71.4874419,99.6942229 L71.4874419,99.6942229 Z" id="path4426"></path>
                    </g>
                </g>
            </g>
        </g>
    </g>
</svg>

<?xml version="1.0" encoding="UTF-8" standalone="no"?>
<!-- Created with Inkscape (http://www.inkscape.org/) -->

<svg
   xmlns:sketch="http://www.bohemiancoding.com/sketch/ns"
   xmlns:dc="http://purl.org/dc/elements/1.1/"
   xmlns:cc="http://creativecommons.org/ns#"
   xmlns:rdf="http://www.w3.org/1999/02/22-rdf-syntax-ns#"
   xmlns:svg="http://www.w3.org/2000/svg"
   xmlns="http://www.w3.org/2000/svg"
   xmlns:sodipodi="http://sodipodi.sourceforge.net/DTD/sodipodi-0.dtd"
   xmlns:inkscape="http://www.inkscape.org/namespaces/inkscape"
   width="217.07001"
   height="277.67001"
   id="svg2"
   version="1.1"
   inkscape:version="0.48.5 r10040"
   sodipodi:docname="Lf7_20_Tafel.svg">
  <defs
     id="defs4" />
  <sodipodi:namedview
     id="base"
     pagecolor="#ffffff"
     bordercolor="#666666"
     borderopacity="1.0"
     inkscape:pageopacity="0.0"
     inkscape:pageshadow="2"
     inkscape:zoom="1.4"
     inkscape:cx="140.47299"
     inkscape:cy="139.05966"
     inkscape:document-units="px"
     inkscape:current-layer="layer6"
     showgrid="false"
     inkscape:window-width="1920"
     inkscape:window-height="1028"
     inkscape:window-x="1366"
     inkscape:window-y="30"
     inkscape:window-maximized="1" />
  <metadata
     id="metadata7">
    <rdf:RDF>
      <cc:Work
         rdf:about="">
        <dc:format>image/svg+xml</dc:format>
        <dc:type
           rdf:resource="http://purl.org/dc/dcmitype/StillImage" />
        <dc:title></dc:title>
      </cc:Work>
    </rdf:RDF>
  </metadata>
  <g
     inkscape:label="Ebene 1"
     inkscape:groupmode="layer"
     id="layer1"
     transform="translate(0,-774.69217)"
     style="display:inline" />
  <g
     inkscape:groupmode="layer"
     id="layer5"
     inkscape:label="schwarz"
     transform="translate(0,102.99001)">
    <rect
       style="fill:#ffffff;fill-opacity:1;stroke:#000000;stroke-width:12;stroke-linecap:round;stroke-linejoin:round;stroke-miterlimit:4;stroke-opacity:1;stroke-dasharray:none"
       id="rect4663"
       width="205.06096"
       height="265.6701"
       x="6"
       y="-96.990112" />
  </g>
  <g
     inkscape:groupmode="layer"
     id="layer6"
     inkscape:label="Ziffer"
     transform="translate(0,102.99001)">
    <g
       id="layer6-6"
       transform="translate(72.5,-55.329986)"
       sketch:type="MSShapeGroup"
       style="fill:#000000;stroke:none">
      <g
         id="g3908"
         transform="translate(0.35794,0.168298)">
        <g
           id="text4403"
           transform="translate(0.004495,0.442793)">
          <path
             d="m 71.487442,99.694223 0,46.630027 c 0.2124,18.92235 -15.638682,35.61399 -35.58246,35.61399 -20.811587,0 -35.64254181,-16.93805 -35.64254181,-35.61399 l 0,-10.66885 22.34500281,0 0,10.66885 c 0,7.59721 6.119741,13.28635 13.147496,13.27577 7.591399,-0.0114 13.409563,-6.0354 13.409563,-13.27577 l 0,-45.85905 c 0,-7.722259 -6.423082,-13.228208 -13.305805,-13.228208 -5.408711,0 -11.171285,3.174111 -13.251254,9.482998 l -22.25624795,0 0,-96.25698147 71.13624695,0 0,22.29647747 -48.879999,0 0,50.166644 c 6.066632,-5.407581 12.451617,-7.10373 20.662809,-7.10373 18.708741,0 28.21719,16.798869 28.21719,33.871823 l 0,0 z"
             id="path4426"
             inkscape:connector-curvature="0" />
        </g>
      </g>
    </g>
  </g>
</svg>
